!!!!SEGMENT: pl-wtm--r-1411_stefani-jozef--uwertura-z-baletu-powrot-wenery-do-olimpu.krn
!!!cenid: 18xx:2423
!!!COM: Stefani, Józef
!!!COM-rismID: pe30024097
!!!CDT: 1800/04/16-1876/03/19
!!!CNT: Polish
!!!OTL: Uwertura z baletu Powrót Wenery do Olimpu
!!!PDT:
!!!AGN: Secular
!!!SMS-siglum: PL-Wtm
!!!SMS-shelfmark: R 1411
!!!SMS-shelfwork: W
!!!SMS-variant:
!!!SMS-altvar:
!!!NIFC-rismSourceID: 1001115996
!!!NIFC-islandoraID: pl-wtm:25514
!!!URL-pdf-islandora: https://repozytorium.nifc.pl/islandora/object/pl-wtm%3A25514/datastream/PDF/view
!!!URL-scan: https://polish.musicsources.pl/pl/lokalizacje/galeria/rekopisy/6241 @EN{Scan on Polish Music Sources Website} @PL{Skany w portalu Dziedzictwo Muzyki Polskiej w otwartym dostępie}
!!!ONB-nifc:
!!!AIN: 1 forte
!!!key:
**kern	**kern	**dynam
*part1	*part1	*part1
*staff2	*staff1	*
*Iforte	*Iempty	*
*I"Piano = Forte	*	*
*clefF4	*clefG2	*
*k[]	*k[]	*
*F:	*F:	*
*M6/8	*M6/8	*
*>[A,B,B,C]	*>[A,B,B,C]	*
!!!OMD: Maestoso
*>A	*>A	*
!	!	!LO:DY:t=f.
8C 8CC/	16ccc 16ee\	f
.	16ryy	.
=1	=1	=1
*	*^	*
!	!	!	!LO:DY:t=p.
8CL 8CC/	8ccc\	8rcyy	p
8C/	8r	8rcyy	.
8C/J	8cc/	8g 8e\	.
4D/	8cc'</L	8fL 8d\	.
.	8b/	16.r	.
.	.	32a-X\KL	.
8BB'/	[>8dd/J	16.g\	.
.	.	32f\JJk	.
=2	=2	=2	=2
8C\L	8dd/]	8e\L	.
16.r	4cc/	16.r	.
32C\KL|	.	32e'>\KL	.
16.D\|	.	16.f'>\	.
32E\JJk|	.	32g'>\JJk	.
8F 8FF'>\	8cc/L	4a\^<	.
4F#X 4FF#X\	16.r	.	]
.	32ee/KL|<	.	>
.	16.dd/|	8rcyy	.
.	32cc/JJk|	.	]]
=3	=3	=3	=3
8G 8GG\	8b/L	4b\	>
4G#X 4GG#X\	16.r	.	.
.	32ff/KL|<	.	]
.	16.ee/|	8rcyy	.
.	32dd/JJk|	.	.
8AL 8AA\	4.cc/	4.a\	.
16.r	.	.	.
32A\KL|	.	.	.
16.B\|	.	.	.
32c\JJk|	.	.	.
=4	=4	=4	=4
8d\L	8b/L	8g\	<
16.rD	8dd/	4b\	.
32d'\KL	.	.	.
16.B'\	[>8gg/J	.	.
32G'\JJk	.	.	[
8D\L	8gg/L]	4.cc 4.a\	f
8d\	16ff#X/L	.	.
.	16ee/J	.	.
8D\J	8ff#/J	.	.
=5	=5	=5	=5
!	!	!	!LO:DY:t=p.
8G\	8gg/	8b\	p
8G\L	8gg/L	8b\L	>
8G\J	(>8gg/J	8b\J	.
(>8G\L	8gg/L	8b\L	.
8A\	8ff#X/	8cc\	.
8B\J)	8ffn/J)	8dd\J	.
=6	=6	=6	=6
8c\L	8ee/L	8cc\L	.
8c\	8cc/	8g 8e\	.
8c\J	8cc/J	8gJ 8e\	.
4B\	8.eeL 8.g/	(>(<4f\	>
.	16dd/K	.	.
8c\	8cc/J	8e\))	]
=7	=7	=7	=7
4F\	16cc/LL	(>4.f (<4.d\	.
.	16b/JJ	.	.
.	8a/L	.	.
8G\	8b/J	.	.
4c\	8cc/L	4e\))	.
.	8g/	.	.
8r	8cc/J	8rd	.
*	*v	*v	*
=8	=8	=8
*tremolo	*	*
!LO:TX:t=P:problem=mixed beam	!	!
(16f>\LL 16B>\	8dd/L	.
16G/	.	.
16f>\ 16B>\	8g/	.
16G/	.	.
16f>\ 16B>\	8dd/J	.
16G/JJ)	.	.
!LO:TX:t=P:problem=mixed beam	!	!
(16e>\LL 16c>\	8.ee/L	.
16G/	.	.
16e>\ 16c>\	.	.
16G/	16dd/K	.
16e>\ 16c>\	8cc/J	.
16G/JJ)	.	.
=9	=9	=9
!LO:TX:t=P:problem=mixed beam	!	!
16d>\LL 16B>\	4dd/	.
16G/	.	.
16d>\ 16B>\	.	.
16G/	.	.
16d>\ 16B>\	16ff/LL	.
16G/JJ	16ee/JJ	.
*Xtremolo	*	*
4d> 4B>\	4dd/	.
8r	(>8b/	.
=10	=10	=10
*	*^	*
8c\L	8cc/L)	8gL 8e\	.
8c\	8cc/	8g 8e\	.
8c\J	8cc/J	8gJ 8e\	<
4B\	8.eeL 8.g/	(>(<4f\	[>
.	8dd/	.	]
8c\	.	8e\))	.
.	16cc/Jk	.	.
!!LO:LB:g=original
=11	=11	=11	=11
4F\	16cc/LL	4.ryy	.
.	16b/JJ	.	.
.	8a/L	.	.
8G\	8b/J	.	.
4c\	8ccL 8e/	4e\	.
.	8g/	.	.
8r	8cc/J	8r	.
*	*v	*v	*
=12	=12	=12
(>16BB\LL|	8dd\L	.
16G\	.	.
16D\	8b\	.
16G\	.	.
16BB\	8gg\J	.
16G\JJ)	.	.
(>16C\LL|	(>16ff#X\LL	.
16A\	16ee\	.
16E\	16dd\	.
16A\	16cc\	.
16C\	16b\	.
16A\JJ)	16a\JJ	.
=13	=13	=13
16D\LL	8g'/L)	.
(>16B\	.	.
16G\	(<8b/	.
16B\	.	.
16F#X 16D\	8a/J)	.
16c\JJ)	.	.
4B 4G\	4g/	.
8r	8g'/	.
=14	=14	=14
!	!	!LO:DY:rj:t=p.
8fL 8d 8G\	16ffnLL 16dd'\	p
.	16ee 16cc#X'\	.
8r	16ff 16dd'\	.
.	16eeJ 16ccn'\	.
8fJ 8d\	8ddJ 8b'\	.
8fL 8d\	16dddLL 16ff\	.
.	16ccc#X 16ee\	.
8r	16ddd 16ff\	.
.	16cccnJ 16ee\	.
8fJ 8d\	8bbJ 8dd\	.
=15	=15	=15
8eL 8c 8G\	16ggLL 16ee'\	.
.	16ff#X 16dd#X'\	.
8r	16gg 16ee'\	.
.	16ffnJ 16ddn'\	.
8eJ 8c 8G\	8eeJ 8cc'\	.
8eL 8c 8G\	16eeeLL 16gg\	.
.	16ddd#X 16ff#X\	.
8r	16eee 16gg\	.
.	16dddnJ 16ffn\	.
8eJ 8c 8G\	8cccJ 8ee\	.
=16	=16	=16
!	!LO:TX:b:i:t=cres-cendo.:problem=dynamics with line extensions	!LO:HP:b:i:t=cres-cendo.:ext=cd
8fL 8d 8G\	16ffLL 16dd\	<
.	16ee 16cc#X\	.
8r	16ff 16dd\	.
.	16ee 16ccn\	.
8fJ 8d 8G\	16dd 16b\	.
.	16ddJJ 16b\	.
8fL 8d 8G\	16dddLL 16ff\	.
.	16ccc#X 16ee\	.
8r	16ddd 16ff\	.
.	16cccn 16ee\	.
8fJ 8d 8G\	16bb 16dd\	.
.	16bbJJ 16dd\	.
=17	=17	=17
8eL 8c 8G\	16ggLL 16ee\	.
.	16ff#X 16dd#X\	.
8r	16gg 16ee\	[
.	16ffn 16ddn\	.
8eJ 8c 8G\	16ee 16cc\	.
.	16eeJJ 16cc\	.
8eL 8c 8G\	16eeeLL 16gg\	.
.	16ddd#X 16ff#X\	.
8r	16eee 16gg\	.
.	16dddn 16ffn\	.
8eJ 8c 8G\	16ccc 16ee\	.
.	16cccJJ 16ee\	.
=18	=18	=18
8f#XL 8d 8c 8G\	16ff#X'\LL	.
.	16ee'\	.
8r	16ff#'\	.
.	16gg'\J	.
8f#J 8d 8c 8G\	[>8aa\J	.
*tremolo	*	*
8f#L 8d 8c 8G\	16aa\LL]	.
.	16gg#X'\	.
8f# 8d 8c 8G\	16aa'\	.
.	16bb'\	.
8f#J 8d 8c 8G\	16ccc'\	.
.	16aa'\JJ	.
=19	=19	=19
(>16dLL 16B 16G\	16ggn'\LL	.
16g\	16ff#X'\	.
16d 16B 16G\	16gg'\	.
16g\	16aa'\	.
16d 16B 16G\	16bb'\	.
16g\JJ)	16gg'\JJ	.
(>16eLL 16d 16G\	16aa'\LL	.
16f#X\	16gg#X'\	.
16e 16d 16G\	16aa'\	.
16f#X\	16bb'\	.
16e 16d 16G\	16ccc'\	.
16f#X\JJ)	16aa'\JJ	.
!!LO:LB:g=original
=20	=20	=20
.	8qaa/	.
(>16dLL 16B 16G\	16ggn\LL	.
16g\	16ff#X\	.
16d 16B 16G\	16gg\	.
16g\	16aa\	.
16d 16B 16G\	16bb\	.
16g\JJ)	16gg\JJ	.
.	8qbb/	.
(>16eLL 16d 16G\	16aa\LL	.
16f#X\	16gg#X\	.
16e 16d 16G\	16aa\	.
16f#X\	16bb\	.
16e 16d 16G\	16ccc\	.
16f#X\JJ)	16aa\JJ	.
*Xtremolo	*	*
=21	=21	=21
8BL 8G\	8gg\L	.
8G\	8gg 8b\	.
8G\J	8ggJ 8b\	.
(>8G\L	(>8ggL 8b\|	<
8A\	8ff#X 8cc\	.
8B\J)	8ffnJ 8dd\)	[
=22	=22	=22
*	*^	*
8c\L	8eeL 8cc/	4.rcyy	.
8c\	8cc 8g 8e/	.	.
8c\J	8ccJ 8g 8e/	.	>
4B\	8.eeL 8.g/	(>(<4f\	]
.	16dd/K	.	.
8c\	8cc/J	8e\))	.
=23	=23	=23	=23
4F\	16cc/LL	4.f 4.d\	.
.	16b/JJ	.	.
.	8a/L	.	.
8G\	8b/J	.	.
4c\	8cc/L	4e\	.
.	8g/	.	.
8r	8cc/J	8r	.
*	*v	*v	*
=24	=24	=24
*tremolo	*	*
!LO:TX:t=P:problem=mixed beam	!	!
(>16f>\LL 16B>\	8dd/L	.
16G/	.	.
16f>\ 16B>\	8g/	.
16G/	.	.
16f>\ 16B>\	8dd/J	.
16G/JJ)	.	.
!LO:TX:t=P:problem=mixed beam	!	!
(>16e>\LL 16c>\	8.ee/L	.
16G/	.	.
16e>\ 16c>\	.	.
16G/	16dd/K	.
16e>\ 16c>\	8cc/J	.
16G/JJ)	.	.
=25	=25	=25
(>16dLL 16B\	8dd/L	.
16G\	.	.
16d 16B\	16cc#X/L	.
16G\	16dd/	.
16d 16B\	16ff/	.
16G\JJ)	16ee/JJ	.
4d 4B\	4dd/	.
8r	8b/	.
*Xtremolo	*	*
=26	=26	=26
*	*^	*
8c\L	8cc/L	8gL 8e\	.
8c\	8cc/	8g 8e\	.
8c\J	8cc/J	8gJ 8e\	.
4B\	8.eeL 8.g/	(>(<4f\	>
.	8dd/	.	.
8c\	.	8e\))	]
.	16cc/Jk	.	.
=27	=27	=27	=27
4F\	16cc/LL	(>4.f (<4.d\	.
.	16b/JJ	.	.
.	8a/L	.	.
8G\	8b/J	.	.
4c\	8ccL 8e/	4e\))	.
.	8g/	.	.
8r	(8cc/J	8r	.
*	*v	*v	*
=28	=28	=28
(>16E\LL|	8gg\L)	.
16c\	.	.
16G\	8gg\	.
16c\	.	.
16E\	[>8gg\J	.
16c\JJ)	.	.
(>16F\LL|	8gg\L]	.
16d\	.	.
16A\	16.ff\L	.
16d\	.	.
.	32a\K	.
16F\	16ee\	.
16d\JJ)	16dd\JJ	.
=29	=29	=29
16G\LL|	8.cc\L	.
16e\	.	.
16c\	.	.
16e\	16b\K	.
16G\	8cc\J	.
16e\JJ	.	.
.	(16qqcc/LL	.
.	16qqdd/JJ	.
!	!LO:TX:a:t=P:problem=łuk idzie pod 16qqcc i 16qqdd, a kończy się nad 4ee	!
16G\LL	4ee\)	.
16f\	.	.
16B\	.	.
16f\	.	.
16B\	8dd\	.
16f\JJ	.	.
=30	=30	=30
*^	*	*
8eL 8c\	4.rEEyy	8cc\L	.
8c 8C\	.	(>8ccc 8ee\	.
8cJ 8C\	.	8cccJ 8ee\	.
(>8C/L	[<4.C\	8cccL 8ee\	.
8c/	.	8bb 8ff\	.
8c/J	.	8bb-XJ 8gg\)	.
=31	=31	=31	=31
*	*	*^	*
8C/L)	2.C\_<	4aa 4ff\	8rcyy	.
8c/	.	.	8rcyy	.
8c/J	.	8aa/	8ff\	.
*tremolo	*	*	*	*
8c/L	.	8.bb/L	4ff\	.
8c/	.	.	.	.
.	.	16aa/K	.	.
8c/J	.	8bb/J	8rcyy	.
*Xtremolo	*	*	*	*
*	*	*v	*v	*
!!LO:LB:g=original
=32	=32	=32	=32
8C/L	2.C\_<	4ccc 4ee\	.
8c/	.	.	.
8c/J	.	8cc 8e/	.
*tremolo	*	*	*
8c/L	.	8ccL 8e/	.
8c/	.	8bn 8f/	.
8c/J	.	8b-XJ 8g/	.
*Xtremolo	*	*	*
=33	=33	=33	=33
*	*	*^	*
8C/L	2C\]	4a 4f/	8rcyy	.
8c/	.	.	8rcyy	.
8c/J	.	8a 8f/	8rcyy	.
*tremolo	*	*	*	*
8c/L	.	8.bnt/L	4f\	.
8c/	8rEEyy	.	.	.
.	.	16a/K	.	.
8c/J	8rEEyy	8b/J	8rcyy	.
*Xtremolo	*	*	*	*
*	*	*v	*v	*
=34	=34	=34	=34
8CC/L	[<2.CC\	4cc 4e/	pp
8C/	.	.	.
8C/J	.	8ee 8g/	.
*tremolo	*	*	*
8C/L	.	8.ddL 8.f/	.
8C/	.	.	.
.	.	16eeK 16a/	.
8C/J	.	8ddJ 8f/	.
*Xtremolo	*	*	*
=35	=35	=35	=35
8CC/L	2CC\]	4cc 4e/	ppp
8C/	.	.	.
8C/J	.	8e< 8G</	.
*tremolo	*	*	*
8C\L	.	8.d<L 8.F</	.
8C\	8rEEyy	.	.
.	.	16e<K 16G</	.
[<8C\J	8rEEyy	8d<J 8G< 8F</	.
*v	*v	*	*
=36	=36	=36
4C\] 4CC\	4c< 4E</	.
8r	8r<	.
4C\ 4CC\	4c< 4E</	.
8r	8r<	.
=37	=37	=37
8C\ 8CC\	8c< 8E<;>/	.
8r	8c/L	.
8r	8d/J	.
4r	8e/L	.
.	8f/	.
8r	8g/J	.
=38||	=38||	=38||
*k[b-]	*k[b-]	*
*F:	*F:	*
*M3/4	*M3/4	*
!	!LO:TX:a:t=Alla Pollaca.	!
8AL 8F\	8a/L	.
8C\	16a/L	.
.	16g/JJ	.
8A 8F\	8f/L	.
8C\	8e/	.
8A 8F\	8f/	.
8C\J	8a/J	.
=39	=39	=39
8B-L 8G\	16g/LL	.
.	16a/	.
8C\	16g/	.
.	16f/JJ	.
8B- 8G\	16e/LL	.
.	16f/	.
8C\	16e/	.
.	16d/JJ	.
=-	=	=
!LO:TX:a:t=P:problem=na dolnej pięciolinii w tym miejscu również znajduje się dodatkowa kreska taktowa; ukryto ją aby wyświetlało się poprawnie tremolo	!	!
8B- 8G\	8c/L	.
8C\J	16d/L	.
.	16e/JJ	.
=40	=40	=40
*^	*	*
8AA/L	8AA\	8f/L	.
8FJ 8C/	8rEE	16f/L	.
.	.	16e/JJ	.
8BB-/L	8BB-\	8d/L	.
8GJ 8D/	8rGG	8d/	.
8BBn/L	8BBn\	8.g/	.
8FJ 8D/	8rGG	.	.
.	.	16f/Jk	.
=41	=41	=41	=41
8E/	8C\	16e/LL	.
.	.	16g/	.
8rF	8rGGyy	16f/	.
.	.	16e/JJ	.
8F 8D 8BBn 8GG/	4rEEyy	16d/LL	.
.	.	16f/	.
8rF	.	16e/	.
.	.	16d/JJ	.
!	!	!LO:TX:t=P:problem=mixed beam	!
8E/	8C\	8c/L	.
8rF	8rEEyy	8cc\J	.
*v	*v	*	*
=42	=42	=42
.	8qcc/	.
8AL 8F\	8aa\L	.
8C\	16aa\L	.
.	16gg\JJ	.
8A 8F\	16ff\LL	.
.	16gg\	.
8C\	16ff\	.
.	16ee\JJ	.
8A 8F\	16ff\LL	.
.	16gg\	.
8C\J	16aa\	.
.	16ff\JJ	.
!!LO:LB:g=original
=43	=43	=43
8B-L 8G\	16gg\LL	.
.	16aa\	.
8C\	16gg\	.
.	16ff\JJ	.
8B- 8G\	16ee\LL	.
.	16ff\	.
8C\	16ee\	.
.	16dd\JJ	.
8B- 8G\	8cc\L	.
8C\J	16dd\L	.
.	16ee\JJ	.
=44	=44	=44
8AL 8F\	8ff\L	.
8C\J	16ff\L	.
.	16ee\JJ	.
8AL 8F\	16dd\LL	.
.	16gg\	.
8BB-\	16bb-\	.
.	16aa\JJ	.
8A 8F\	16gg\LL	.
.	16ddd\	.
8BB-\J	16bb-\	.
.	16gg\JJ	.
=45	=45	=45
8AL 8F 8C\	16ff\LL	.
.	16cc\	.
8B-J 8G 8C\	16aa\	.
.	16gg\JJ	.
8r	4gg\	.
8B- 8E 8C\	.	.
4A 4F\	8ff\	.
.	8r	.
=46||	=46||	=46||
.	8qc/	.
*^	*	*
8E/L	8E\	8b-/L	.
8cJ 8G/	8rD	16b-/L	.
.	.	16a/JJ	.
*rep	*rep	*	*
8E/L	8E\	8g'/L	.
8cJ 8G/	8rD	8c'/	.
*Xrep	*Xrep	*	*
*rep	*rep	*	*
8E/L	8E\	8g'/	.
8cJ 8G/	8rD	8b-'/J	.
*Xrep	*Xrep	*	*
=47	=47	=47	=47
8F/L	8F\	8a/L	.
8cJ 8A/	8r	16a/L	.
.	.	16g/JJ	.
*rep	*rep	*	*
8F/L	8F\	4.f/	.
8cJ 8A/	8r	.	.
*Xrep	*Xrep	*	*
8AA/L	8AA\	.	.
8FJ 8C/	8r	8e/	.
=48	=48	=48	=48
8BB-/L	8BB-\	16d/LL	.
.	.	16e/	.
8GJ 8F 8D/	8r	16f/	.
.	.	16f#X/JJ	.
8AA/L	8AA\	8g/L	.
8GJ 8F 8D/	8r	8a/	.
8BB-/L	8BB-\	8b-/	.
8GJ 8F 8D/	8r	8g/J	.
=49	=49	=49	=49
8C/L	8C\	8.fn/L	.
8AJ 8F/	8rD	.	.
.	.	32g/LL	.
.	.	32f/JJJ	.
!	!	!LO:TUP:b:problem=klamra łukowa	!
4G 4E/	4C\	12e/L	.
.	.	12cc/	.
.	.	12dd/J	.
!	!	!LO:TUP:a:problem=klamra łukowa	!
4r	4ryy	12ee'\L	.
.	.	12ff'\	.
.	.	12gg'\J	.
*v	*v	*	*
=50	=50	=50
16F\LL	8aa\L	.
16c\	.	.
16A\	16aa\L	.
16c\JJ	16gg\JJ	.
*rep	*	*
16F\LL	16ff\LL	.
16c\	16gg\	.
16A\	16ff\	.
16c\JJ	16ee\JJ	.
*Xrep	*	*
*rep	*	*
16F\LL	16ff\LL	.
16c\	16gg\	.
16A\	16aa\	.
16c\JJ	16ff\JJ	.
*Xrep	*	*
=51	=51	=51
16E\LL	16gg\LL	.
16c\	16aa\	.
16B-\	16gg\	.
16c\JJ	16ff\JJ	.
*rep	*	*
16E\LL	16ee\LL	.
16c\	16ff\	.
16B-\	16ee\	.
16c\JJ	16dd\JJ	.
*Xrep	*	*
16C\LL	8cc\L	.
16c\	.	.
16B-\	16dd\L	.
16c\JJ	16ee\JJ	.
=52	=52	=52
16F\LL	8ff\L	.
16c\	.	.
16A\	16ff\L	.
16c\JJ	16ee\JJ	.
16BB-\LL	16dd\LL	.
16G\	16gg\	.
16D\	16bb-\	.
16G\JJ	16aa\JJ	.
16BB-\LL	16gg\LL	.
16G\	16ddd\	.
16D\	16bb-\	.
16G\JJ	16bb-\JJ	.
=53	=53	=53
8AL 8F 8C\	16ff\LL	.
.	16cc\	.
8B-J 8G 8C\	16aa\	.
.	16gg\JJ	.
8r	4gg\	.
8B-L 8E 8C\	.	.
8AJ 8F\	8ff\	.
8r	8a/	.
!!LO:PB:g=original
=54||	=54||	=54||
*tremolo	*	*
8AL 8F 8D\	8dd\L|	.
8A 8F 8D\	(>16ff^<\L	.
.	16ee\JJ)	.
8A 8F 8D\	8dd\L	.
8A 8F 8D\	8a\J	.
8A 8F 8D\	8dd\L|	.
8AJ 8F 8D\	(>16ff^<\L	.
.	16ee\JJ)	.
=55	=55	=55
8AL 8F 8D\	8dd\L|	.
8A 8F 8D\	(>16ff^<\L	.
.	16ee\JJ)	.
8A 8F 8D\	8dd\L	.
8A 8F 8D\	8a\J	.
8A 8F 8D\	8dd\L	.
8AJ 8F 8D\	16ff\L	.
.	16gg\JJ	.
=56	=56	=56
!	!LO:TUP:a:problem=klamra łukowa	!
8AL 8G 8E 8C#X\	12aa\L	.
.	12aa\	.
8A 8G 8E 8C#\	.	.
.	12aa\J	.
*	*Xtuplet	*
8A 8G 8E 8C#\	(>12aa\L	.
.	12bb-\)	.
8A 8G 8E 8C#\	.	.
.	12aa'\J	.
8A 8G 8E 8C#\	(>12gg\L	.
.	12ff\)	.
8AJ 8G 8E 8C#\	.	.
.	12ee'\J	.
=57	=57	=57
8AL 8F 8D\	(>12ff\L	<
.	12gg\	.
8A 8F 8D\	.	.
.	12aa\J)	[
8A 8F 8D\	4.dd\	.
8A 8F 8D\	.	.
8A 8F 8D\	.	.
8AJ 8F 8D\	8a\	.
=58	=58	=58
8AL 8F 8D\	8dd'\L	.
8A 8F 8D\	(>16ff^<\L	.
.	16ee\JJ)	.
8A 8F 8D\	8dd\L	.
8A 8F 8D\	8a\J	.
8A 8F 8D\	8dd'^<\L	.
8AJ 8F 8D\	16ff\L	.
.	16ee\JJ	.
=59	=59	=59
8AL 8F 8D\	8dd'\L	.
8A 8F 8D\	(>16ff\L	.
.	16ee\JJ)	.
8A 8F 8D\	8dd\L	.
8A 8F 8D\	8a\J	.
8A 8F 8D\	8dd\L	.
8AJ 8F 8D\	16ff\L	.
.	16aa\JJ	.
=60	=60	=60
8B-L 8G 8E 8Cn\	8bb-'\L	.
8B- 8G 8E 8C\	(>16bb-\L	.
.	16aa\JJ)	.
8B- 8G 8E 8C\	8gg'\L	.
8B- 8G 8E 8C\	(>16gg\L	.
.	16ff\JJ)	.
8B- 8G 8E 8C\	8ee\L	.
8B-J 8G 8E 8C\	8ccc\J	.
=61	=61	=61
8AL 8F\	8ff'\L	.
8C\J	(>16aa\L	.
.	16gg\JJ)	.
8AL 8F\	8ff\L|	.
8C\J	(16aa\L	.
.	16gg\JJ)	.
8A 8F\	8ff\L	.
8r	8ff\J	.
=62||	=62||	=62||
*^	*	*
*	*	*tuplet	*
!	!	!LO:TUP:a:problem=klamra łukowa	!
8AA/L	8AA\	12ee'\L	.
.	.	12ee'\	.
8AJ 8G 8E/	8rBB	.	.
.	.	12ee'\J	.
*	*	*Xtuplet	*
8C#X/L	8C#\	12ee\L	.
.	.	12gg\	.
8AJ 8G 8E/	8rBB	.	.
.	.	12ff\J	.
8AA/L	8AA\	(>12ee\L	.
.	.	12aa\)	.
8AJ 8G 8E/	8rBB	.	.
.	.	(>12cc#X\J	.
=63	=63	=63	=63
8D/L	8D\	12dd'\L	.
.	.	12dd'\	.
8AJ 8F/	8r	.	.
.	.	12dd'\J	.
8AA/L	8AA\	12dd\L	.
.	.	12ff\	.
8AJ 8F/	8r	.	.
.	.	12gg\J	.
8D/L	8D\	12aa\L	.
.	.	12gg\)	.
8AJ 8F/	8r	.	.
.	.	12ff\J	.
=64	=64	=64	=64
8C#X/L	8C#\	12ee'\L	.
.	.	12ee'\	.
8AJ 8G 8E/	8r	.	.
.	.	12ee'\J	.
*rep	*rep	*	*
8C#/L	8C#\	(>12ee\L	.
.	.	12gg\)	.
8AJ 8G 8E/	8r	.	.
.	.	12ff'\J	.
*Xrep	*Xrep	*	*
8AA/L	8AA\	12ee\L	.
.	.	12aa\	.
8AJ 8G 8E/	8r	.	.
.	.	12cc#X\J	.
!!LO:LB:g=original
=65	=65	=65	=65
8D/L	8D\	12dd\L	.
.	.	12ee\	.
8AJ 8F/	8r	.	.
.	.	12ff\J	.
8AA/L	8AA\	12dd\L	.
.	.	12ee\	.
8AJ 8F/	8r	.	.
.	.	12ff\J	.
8A/	8F 8D\	8dd\L	.
8rF	8rEEyy	8a\J	.
*v	*v	*	*
=66	=66	=66
8AL 8F 8D\	8dd'\L	.
8A 8F 8D\	16ff\L	.
.	16ee\JJ	.
8A 8F 8D\	8dd\L	.
8A 8F 8D\	8a\J	.
8A 8F 8D\	8dd'\L	.
8AJ 8F 8D\	(>16ff^<\L	.
.	16ee\JJ)	.
=67	=67	=67
8AL 8F 8D\	8dd'\L	.
8A 8F 8D\	(>16ff^<\L	.
.	16ee\JJ)	.
8A 8F 8D\	8dd\L	.
8A 8F 8D\	8a\J	.
8A 8F 8D\	8dd'\L	.
8AJ 8F 8D\	(>16ff\L	.
.	16ee\JJ)	.
=68	=68	=68
8EL 8BB- 8GG/	12ee'\L	.
.	12ee'\	.
8E 8BB- 8GG/	.	.
.	12ee'\J	.
8E 8BB- 8GG/	(>12ee\L	.
.	12gg\	.
8E 8BB- 8GG/	.	.
.	12aa\J	.
8E 8BB- 8GG/	12bb-\L	.
.	12gg\	.
8EJ 8BB- 8GG/	.	.
.	12ee\J)	.
=69	=69	=69
8FL 8D 8AA/	16dd\LL	.
.	16a\	.
8GJ 8E 8AA/	16ff\	.
.	16ee\JJ	.
8r	4ee\	.
8GL 8C#X 8AA/	.	.
8FJ 8D/	8dd\	.
8r	8cn/	.
=70||	=70||	=70||
.	8qc/	.
8AL 8F\	8a/L	.
8C\	16a/L	.
.	16g/JJ	.
8A 8F\	8f/L	.
8C\	8e/	.
8A 8F\	8f/	.
8C\J	8a/J	.
=71	=71	=71
8B-L 8G\	16g/LL	.
.	16a/	.
8C\	16g/	.
.	16f/JJ	.
8B- 8G\	16e/LL	.
.	16f/	.
8C\	16e/	.
.	16d/JJ	.
8B- 8G\	8c/L	.
8C\J	16d/L	.
.	16e/JJ	.
=72	=72	=72
*^	*	*
8AA/L	8AA\	8f/L	.
8FJ 8C/	8rGG	16.f/L	.
.	.	32e/JJk	.
8BB-/L	8BB-\	8d/L	.
8GJ 8D/	8rGG	8d/	.
8BBn/L	8BBn\	8.g/	.
8FJ 8D/	8rGG	.	.
.	.	16f/Jk	.
*v	*v	*	*
=73	=73	=73
8E 8C\	16e/LL	.
.	16g/	.
8r	16f/	.
.	16e/JJ	.
8F 8D 8BBn 8GG\	16d/LL	.
.	16f/	.
8r	16e/	.
.	16d/JJ	.
8E 8C\	8c/L	.
8r	8c/J	.
=74	=74	=74
!	!	!LO:DY:rj
.	8qcc/	f
8AL 8F\	8aa\L	.
8C\	16aa\L	.
.	16gg\JJ	.
8A 8F\	16ff\LL	.
.	16gg\	.
8C\	16ff\	.
.	16ee\JJ	.
8A 8F\	16ff\LL	.
.	16gg\	.
8C\J	16aa\	.
.	16ff\JJ	.
=75	=75	=75
8B-L 8G\	16gg\LL	.
.	16aa\	.
8C\	16gg\	.
.	16ff\JJ	.
8B- 8G\	16ee\LL	.
.	16ff\	.
8C\	16ee\	.
.	16dd\JJ	.
8B- 8G\	8cc\L	.
8C\J	16dd\L	.
.	16ee\JJ	.
*Xtremolo	*	*
!!LO:LB:g=original
=76	=76	=76
16ALL 16F\	8ff\L	.
16C\	.	.
16A 16F\	16ff\L	.
16C\JJ	16ee\JJ	.
16GLL 16D\	16dd\LL	.
16BB-\	16gg\	.
16G 16D\	16bb-\	.
16BB-\JJ	16aa\JJ	.
16GLL 16D\	16gg\LL	.
16BB-\	16ddd\	.
16G 16D\	16bb-\	.
16BB-\JJ	16gg\JJ	.
=77	=77	=77
8AL 8F 8C\	16ff\LL	.
.	16cc\	.
8B-J 8G 8C\	16aa\	.
.	16gg\JJ	.
8r	4gg\	.
8B-L 8E 8C\	.	.
8AJ 8F\	8ff\	.
8r	8f/	mf
=78||	=78||	=78||
!	!LO:TX:b:i:t=dolce	!
16B-\LL	4.dd 4.b-\	.
16f\	.	.
16d\	.	.
16f\JJ	.	.
*rep	*	*
16B-\LL	.	.
16f\	.	.
16d\	(>8ccL 8a\	.
16f\JJ	.	.
*Xrep	*	*
*rep	*	*
16B-\LL	8dd 8b-\	.
16f\	.	.
16d\	8ee-XJ 8cc\)	.
16f\JJ	.	.
*Xrep	*	*
=79	=79	=79
*rep	*	*
16B-\LL	(>8eenL 8cc#X\	.
16f\	.	.
16d\	8ff 8dd\	.
16f\JJ	.	.
16B-\LL	8gg 8ee-X\	.
16f\	.	.
16d\	8ff 8dd\	.
16f\JJ	.	.
16B-\LL	8dd 8b-\	.
16f\	.	.
16d\	8ffJ 8dd\)	.
16f\JJ	.	.
*Xrep	*	*
=80	=80	=80
16F\LL	8ee-XL 8cc'\	.
16f\	.	.
16A\	(>16ee-L 16cc\	.
16f\JJ	16ddJJ 16b-\)	.
16F\LL	8ccL 8a'\	.
16f\	.	.
16e-X\	(>16ccL 16a\	.
16f\JJ	16b-JJ 16g\)	.
16F\LL	8aL 8f'\	.
16f\	.	.
16c\	(>16ffL 16a\	.
16f\JJ	16ee-XJJ 16cc\)	.
=81	=81	=81
16B-\LL	8ddL 8b-\	.
16f\	.	.
16d\	16ddL 16b-\	.
16f\JJ	16ee-XJJ 16cc\	.
*rep	*	*
16B-\LL	8ffL 8dd\	.
16f\	.	.
16d\	16dddL 16bb-\	.
16f\JJ	16eee-XJJ 16ccc\	.
*Xrep	*	*
*rep	*	*
16B-\LL	8fffL 8ddd\	.
16f\	.	.
16d\	8ff\J	.
16f\JJ	.	.
*Xrep	*	*
=82	=82	=82
*rep	*	*
16B-\LL	4.dd 4.b-\	.
16f\	.	.
16d\	.	.
16f\JJ	.	.
16B-\LL	.	.
16f\	.	.
16d\	(>8ccL 8a\	.
16f\JJ	.	.
16B-\LL	8dd 8b-\	.
16f\	.	.
16d\	8ee-XJ 8cc\)	.
16f\JJ	.	.
*Xrep	*	*
=83	=83	=83
*rep	*	*
16B-\LL	(>8eenL 8cc#X\	.
16f\	.	.
16d\	8ff 8dd\	.
16f\JJ	.	.
16B-\LL	8gg 8ee-X\	.
16f\	.	.
16d\	8ff 8dd\	.
16f\JJ	.	.
16B-\LL	8dd 8b-\	.
16f\	.	.
16d\	8ffJ 8dd\)	.
16f\JJ	.	.
*Xrep	*	*
=84	=84	=84
16F\LL	8ee-XL 8cc'\	.
16f\	.	.
16A\	(>16ee-L 16cc\	.
16f\JJ	16ddJJ 16b-\)	.
16F\LL	8ccL 8a'\	.
16f\	.	.
16e-X\	(>16ccL 16a\	.
16f\JJ	16b-JJ 16g\)	.
16F\LL	8a'\L	.
16f\	.	.
16c\	(>16ff\L	.
16f\JJ	16ee-\JJ)	.
=85	=85	=85
*^	*	*
16B-/LL	8B-\L	16dd\LL	.
16d/	.	16ff\	.
16c/	8F\J	16ee-X\	.
16A/JJ	.	16cc\JJ	.
4e-X 4A/	8rD	4cc\	.
.	8F\	.	.
8d/	8B-\	8b-\	.
8rF	8ryy	8f/	.
*v	*v	*	*
!!LO:LB:g=original
=86||	=86||	=86||
16F\LL	(4.cc 4.a\	.
16f\	.	.
16e-X\	.	.
16f\JJ	.	.
16c\LL	.	.
16f\	.	.
16e-X\	(<8bnL 8g#X/	.
16f\JJ	.	.
16F\LL	8cc 8a/))	.
16f\	.	.
16e-\	8ddJ 8b-X/	.
16f\JJ	.	.
=87	=87	=87
16F\LL	8ee-XL 8cc\	.
16f\	.	.
16c\	16ccL 16a\	.
16f\JJ	16ddJJ 16b-\	.
*rep	*	*
16F\LL	8ee-L 8cc\	.
16f\	.	.
16c\	16cccL 16aa\	.
16f\JJ	16dddJJ 16bb-\	.
*Xrep	*	*
*rep	*	*
16F\LL	8eee-XL 8ccc\	.
16f\	.	.
16c\	8ff\J	.
16f\JJ	.	.
*Xrep	*	*
=88	=88	=88
16B-\LL	4.dd 4.b-\	.
16f\	.	.
16d\	.	.
16f\JJ	.	.
*rep	*	*
16B-\LL	.	.
16f\	.	.
16d\	8ccL 8a\	.
16f\JJ	.	.
*Xrep	*	*
*rep	*	*
16B-\LL	8dd 8b-\	.
16f\	.	.
16d\	8ee-XJ 8cc\	.
16f\JJ	.	.
*Xrep	*	*
=89	=89	=89
*rep	*	*
16B-\LL	8ffL 8dd'\	.
16f\	.	.
16d\	(>16ddL 16b-\	.
16f\JJ	(>16ee-XJJ 16cc\	.
16B-\LL	8ffL 8dd\)	.
16f\	.	.
16d\	16dddL 16bb-\	.
16f\JJ	16eee-XJJ 16ccc\)	.
16B-\LL	8fffL 8ddd\	.
16f\	.	.
16d\	8ff\J	.
16f\JJ	.	.
*Xrep	*	*
=90	=90	=90
*rep	*	*
16B-\LL	(>4.dd 4.b-\	.
16f\	.	.
16d\	.	.
16f\JJ	.	.
16B-\LL	.	.
16f\	.	.
16d\	8ccL 8a\	.
16f\JJ	.	.
16B-\LL	8dd 8cc\	.
16f\	.	.
16d\	8ee-XJ 8cc\)	.
16f\JJ	.	.
*Xrep	*	*
=91	=91	=91
*rep	*	*
16B-\LL	(>8eenL 8cc#X\	.
16f\	.	.
16d\	8ff 8dd\	.
16f\JJ	.	.
16B-\LL	8gg 8ee-X\	.
16f\	.	.
16d\	8ff 8dd\	.
16f\JJ	.	.
16B-\LL	8dd 8b-\	.
16f\	.	.
16d\	8ffJ 8dd\)	.
16f\JJ	.	.
*Xrep	*	*
=92	=92	=92
16F\LL	8ee-XL 8cc\	.
16f\	.	.
16c 16A\	(>16ee-L 16cc\	.
16f\JJ	16ddJJ 16b-\)	.
16F\LL	8ccL 8a\	.
16f\	.	.
16e-X\	16ccL 16a\	.
16f\JJ	16b-JJ 16g\	.
16F\LL	8a\L	.
16f\	.	.
16c\	16ff\L	.
16f\JJ	16ee-\JJ	.
=93	=93	=93
*^	*	*
16c/LL	8A\L	16dd\LL	.
16d/	.	16ff\	.
16c/	8F\J	16ee-X\	.
16A/JJ	.	16cc\JJ	.
4e 4A/	8rBB	4cc\	.
.	8F\L	.	.
8d/	8B-\J	8b-\	.
8rF	16rA	16r	.
.	16G 16GG/	16een 16b-\	.
*v	*v	*	*
=94	=94	=94
4G 4GG;>/	4ee 4b-;>\	.
*	*cue	*
*	*Xtuplet	*
4ryy	8e/L	.
.	48f/LL	.
.	48e/	.
.	48d/JJJ	.
!	!LO:TX:b:i:t=ad libitum	!
.	8.e/L	.
4ryy	.	.
.	16f/Jk	.
.	8g/L	.
4ryy	.	.
.	48a/LL	.
.	48g/	.
.	48f#X/JJJ	.
.	8.g/L	.
4ryy	.	.
.	16a/Jk	.
.	12b-/L	.
.	12a/	.
4ryy	.	.
.	12g/J	.
.	12g/L	.
.	12fn/	.
4ryy	.	.
.	12e/J	.
.	16g/LL	.
.	16a/	.
8r;>	16e/	.
.	16g/JJ	.
*	*Xcue	*
4F 4FF;>\	4f 4c 4A;>/	.
8r;>	8f;>/	.
!!LO:LB:g=original
=95	=95	=95
4D 4DD;>/	4f 4Bn;>/	.
*	*cue	*
!	!LO:N:vis=8	!
8r	64f/L	.
!	!LO:N:vis=8	!
.	64e/	.
!	!LO:N:vis=8	!
.	64d/J	.
!	!LO:N:vis=8	!
.	64d/L	.
!	!LO:N:vis=8	!
.	64c/	.
!	!LO:N:vis=8	!
.	64B/J	.
!	!LO:N:vis=8.	!
.	64.d/L	.
!	!LO:N:vis=16	!
.	128c/Jk	.
*	*Xcue	*
4C 4CC;</	4e 4c 4G;>/	.
*	*cue	*
!	!LO:N:vis=8	!
8r	32c'/L	.
!	!LO:N:vis=8	!
.	32d'/J	.
!	!LO:TUP:a:problem=klamra łukowa	!
!	!LO:TX:a:t=P:problem=w źródle ta nuta ma wartość ósemki z trioli	!
.	48e'/L	.
!	!LO:TX:a:t=P:problem=w źródle ta nuta ma wartość ósemki z trioli	!
.	48f'/	.
!	!LO:TX:a:t=P:problem=w źródle ta nuta ma wartość ósemki z trioli	!
.	48g'/J	.
*	*Xcue	*
=96	=96	=96
*tremolo	*	*
!	!LO:TX:a:i:t=a tempo	!
8AL 8F\	8a/L	.
8C\	16a/L	.
.	16g/JJ	.
8A 8F\	8f/L	.
8C\	8e/	.
8A 8F\	8f/	.
8C\J	8a/J	.
=97	=97	=97
8B-L 8G\	16g/LL	.
.	16a/	.
8C\	16g/	.
.	16f/JJ	.
8B- 8G\	16e/LL	.
.	16f/	.
8C\	16e/	.
.	16d/JJ	.
8B- 8G\	8c/L	.
8C\J	16d/L	.
.	16e/JJ	.
=98	=98	=98
*^	*	*
8AA/L	8AA\	8f/L	.
8FJ 8C/	8rGG	16f/L	.
.	.	16e/JJ	.
8BB-/L	8BB-\	8d/L	.
8GJ 8D/	8rGG	8d/	.
8BBn/L	8BBn\	8.g/	.
8FJ 8D/	8rGG	.	.
.	.	16f/Jk	.
=99	=99	=99	=99
8G 8E/	8C\	16e/LL	.
.	.	16g/	.
8rcyy	8rD	16f/	.
.	.	16e/JJ	.
8F 8D/	8BBn 8GG\	16d/LL	.
.	.	16f/	.
8rcyy	8rD	16e/	.
.	.	16d/JJ	.
!	!	!LO:TX:t=P:problem=mixed beam	!
4rcyy	8E 8C\	8c/L	.
.	8rD	8cc\J	.
*v	*v	*	*
=100	=100	=100
!	!	!LO:DY:t=forte
.	16qcc/	f
16ALL 16F\	8aa\L	.
16C\	.	.
16A 16F\	16aa\L	.
16C\	16gg\JJ	.
16A 16F\	16ff\LL	.
16C\	16gg\	.
16A 16F\	16ff\	.
16C\	16ee\JJ	.
16A 16F\	16ff\LL	.
16C\	16gg\	.
16A 16F\	16aa\	.
16C\JJ	16ff\JJ	.
=101	=101	=101
16B-LL 16G\	16gg\LL	.
16C\	16aa\	.
16B- 16G\	16gg\	.
16C\	16ff\JJ	.
16B- 16G\	16ee\LL	.
16C\	16ff\	.
16B- 16G\	16ee\	.
16C\	16dd\JJ	.
16B- 16G\	8cc\L	.
16C\	.	.
16B- 16G\	16dd\L	.
16C\JJ	16ee\JJ	.
*Xtremolo	*	*
=102	=102	=102
16ALL 16F\	8ff\L	.
16C\	.	.
16A 16F\	16ff\L	.
16C\JJ	16ee\JJ	.
16GLL 16D\	16dd\LL	.
16BB-\	16gg\	.
16G 16D\	16bb-\	.
16BB-\JJ	16aa\JJ	.
16GLL 16D\	16gg\LL	.
16BB-\	16ddd\	.
16G 16D\	16bb-\	.
16BB-\JJ	16gg\JJ	.
=103	=103	=103
16ALL 16F\	16ff\LL	.
16C\	16cc\	.
16A 16F\	16aa\	.
16C\JJ	16ff\JJ	.
4A 4F\	4ccc\	.
4c 4G 4E 4C\	4ee 4cc 4b- 4g\	.
=104	=104	=104
2.r;>	2.r;>	.
!LO:TX:b:t=VS	!	!
!!LO:PB:g=original
=105-	=105-	=105-
*M2/2	*M2/2	*
*met(c|)	*met(c|)	*
!!!OMD: piu Allegro.
*tremolo	*	*
!LO:TX:t=P:problem=mixed beam	!	!LO:DY:rj
16FF/LL	8f/L	p
16F\	.	.
16FF/	(<16a/L	.
16F\	16g/JJ)	.
16FF/	8f/L	.
16F\	.	.
16FF/	8e/J	.
*rep	*	*
16F\JJ	.	.
16FF/LL	8f/L	.
16F/	.	.
16FF/	8e/	.
16F/	.	.
16FF/	8f/	.
16F/	.	.
16FF/	8a/J	.
16F/JJ	.	.
*Xrep	*	*
=106	=106	=106
!LO:TX:t=P:problem=mixed beam	!	!
16FF/LL	8gL 8e/	.
16F\	.	.
16FF/	(<16b-L 16g/	.
16F\	16aJJ 16f/)	.
16FF/	8gL 8e/	.
16F\	.	.
16FF/	8f#XJ 8d#X/	.
16F\JJ	.	.
*rep	*	*
16FF/LL	8gL 8e/	.
16F\	.	.
16FF/	8f# 8d#/	.
16F\	.	.
16FF/	8g 8e/	.
16F\	.	.
16FF/	8b-J 8g/	.
16F\JJ	.	.
*Xrep	*	*
=107	=107	=107
!LO:TX:t=P:problem=mixed beam	!	!
16FF/LL	8aL 8f/	.
16F\	.	.
16FF/	16ccL 16a/	.
16F\	16b-JJ 16g/	.
16FF/	8aL 8f/	.
16F\	.	.
16FF/	8g#X 8e/	.
16F\JJ	.	.
*rep	*	*
!	!LO:TX:b:i:t=cres&colon; poco. a poco.:problem=dynamics with line extensions	!LO:HP:b:i:t=cres&colon; poco. a poco.:ext=space
16FF/LL	8a 8f/	<
16F\	.	.
16FF/	8cc 8a 8e/	.
16F\	.	.
16FF/	8a 8f/	.
16F\	.	.
16FF/	8ccJ 8a/	.
16F\JJ	.	.
*Xrep	*	*
=108	=108	=108
!LO:TX:t=P:problem=mixed beam	!	!
16FF/LL	8b-L 8gn\|	.
16F\	.	.
16FF/	(>16ddL 16b-\	.
16F\	16ccJJ 16a\)	.
16FF/	8b-L 8g\	.
16F\	.	.
16FF/	8aJ 8f#X\	.
16F\JJ	.	.
*rep	*	*
16FF/LL	8b-L 8g\	.
16F\	.	.
16FF/	8a 8f#\	.
16F\	.	.
16FF/	8b- 8g\	.
16F\	.	.
16FF/	8eeJ 8b-\	.
16F\JJ	.	.
*Xrep	*	*
=109	=109	=109
!LO:TX:t=P:problem=mixed beam	!	!
16FF/LL	8ffL 8a\	.
16F\	.	.
16FF/	16aaL 16cc\	.
16F\	16ggJJ 16b-\	.
16FF/	8ffL 8a\	.
16F\	.	.
16FF/	8eeJ 8g#X\	.
16F\JJ	.	.
*rep	*	*
16FF/LL	8ffL 8a\	.
16F\	.	.
16FF/	8ee 8g#\	.
16F\	.	.
16FF/	8ff 8a\	.
16F\	.	.
16FF/	8aaJ 8cc\	.
16F\JJ	.	.
*Xrep	*	*
=110	=110	=110
!LO:TX:t=P:problem=mixed beam	!	!
16FF/LL	8ggL 8b-\	.
16F\	.	.
16FF/	16bb-L 16gg\	.
16F\	16aaJJ 16ff\	.
16FF/	8ggL 8ee\	.
16F\	.	.
16FF/	8ff#XJ 8dd#X\	.
16F\JJ	.	.
*rep	*	*
16FF/LL	8ggL 8ee\	.
16F\	.	.
16FF/	8ff# 8dd#\	.
16F\	.	.
16FF/	8gg 8ee\	.
16F\	.	.
16FF/	8bb-J 8gg\	.
16F\JJ	.	.
*Xrep	*	*
=111	=111	=111
!LO:TX:t=P:problem=mixed beam	!	!
16FF/LL	8aaL 8ff\	.
16F\	.	.
16FF/	16cccL 16aa\	.
16F\	16bb-JJ 16gg\	.
16FF/	8aaL 8ff\	.
16F\	.	.
16FF/	8gg#XJ 8ee\	.
16F\JJ	.	.
*rep	*	*
16FF/LL	8aaL 8ff\	.
16F\	.	.
16FF/	8gg# 8ee\	.
16F\	.	.
16FF/	8aa 8ff\	.
16F\	.	.
16FF/	8cccJ 8aa\	.
16F\JJ	.	[
*Xrep	*	*
!!LO:LB:g=original
=112	=112	=112
!LO:TX:t=P:problem=mixed beam	!	!
16FF/LL	8bb-L 8gg\	.
16F\	.	.
16FF/	16dddL 16bb-\	.
16F\	16cccJJ 16aa\	.
16FF/	8bb-L 8gg\	.
16F\	.	.
16FF/	8aaJ 8ff#X\	.
16F\JJ	.	.
*rep	*	*
16FF/LL	8bb-L 8gg\	.
16F\	.	.
16FF/	8aa 8ff#\	.
16F\	.	.
16FF/	8bb- 8gg\	.
16F\	.	.
16FF/	8eeenJ 8bb- 8gg\	.
16F\JJ	.	.
*Xrep	*	*
*Xtremolo	*	*
=113	=113	=113
*	*tremolo	*
!	!	!LO:DY:rj
8FL 8FF\	16fffLL 16aa\	ff
.	16ff\	.
(>16A\L	16fff 16aa\	.
16G\JJ)	16ff\	.
8F\L	16fff 16aa\	.
.	16ff\	.
8E\J	16fff 16aa\	.
.	16ff\JJ	.
8F\L	16fffLL 16aa\	.
.	16ff\	.
8E\	16fff 16aa\	.
.	16ff\	.
8F\	16fff 16aa\	.
.	16ff\	.
8A\J	16fff 16aa\	.
.	16ff\JJ	.
=114	=114	=114
8dL 8D\|	16fffLL 16aa\	.
.	16ff\	.
(>16f\L	16fff 16aa\	.
16e\JJ)	16ff\	.
8d\L	16fff 16aa\	.
.	16ff\	.
8c#X\J	16fff 16aa\	.
.	16ff\JJ	.
8d\L	16fffLL 16aa\	.
.	16ff\	.
8c#\	16fff 16aa\	.
.	16ff\	.
8d\	16fff 16aa\	.
.	16ff\	.
8f\J	16fff 16aa\	.
.	16ff\JJ	.
=115	=115	=115
8B-\L	16fffLL 16bb-\	.
.	16gg\	.
16d\L	16fff 16bb-\	.
16cn\JJ	16gg\	.
8B-\L	16fff 16bb-\	.
.	16gg\	.
8A\J	16fff 16bb-\	.
.	16gg\	.
8B-\L	16fff 16bb-\	.
.	16gg\	.
8A\J	16fff 16bb-\	.
.	16gg\JJ	.
*	*Xtremolo	*
8B-L 8BB-\	16fffLL 16ddd 16aa-X\	.
.	16ff\	.
8BnJ 8BBn\	16fff 16ddd 16aa-X\	.
.	16ff\JJ	.
=116	=116	=116
*	*tremolo	*
8cL 8C\	16fffLL 16aan\	.
.	16ff\	.
16F\L	16fff 16aa\	.
16A\JJ	16ff\	.
8c\L	16fff 16aa\	.
.	16ff\	.
8c\J	16fff 16aa\	.
.	16ff\JJ	.
*	*Xtremolo	*
!LO:TX:t=P:problem=mixed beam	!	!
16c\LL	16fffLL 16bb-\	.
16c\	16gg\	.
16C/	16fff 16bb-\	.
16C/JJ	16gg\JJ	.
8C/L	16eeeLL 16bb-\	.
.	16gg\	.
8C/J	16eee 16bb-\	.
.	16gg\JJ	.
!!LO:LB:g=original
=117	=117	=117
*coll8va	*tremolo	*
!LO:TX:a:t=Con 8va	!	!
8Fyy 8FF/L	16fffLL 16aa\	.
.	16ff\	.
16Ayy 16AA/L	16fff 16aa\	.
16Gyy 16GG/JJ	16ff\	.
8Fyy 8FF/L	16fff 16aa\	.
.	16ff\	.
8Eyy 8EE/J	16fff 16aa\	.
.	16ff\JJ	.
*	*rep	*
8Fyy 8FF/L	16fffLL 16aa\	.
.	16ff\	.
8Eyy 8EE/	16fff 16aa\	.
.	16ff\	.
8Fyy 8FF/	16fff 16aa\	.
.	16ff\	.
8Eyy 8EE/J	16fff 16aa\	.
.	16ff\JJ	.
*	*Xrep	*
=118	=118	=118
!LO:TX:t=P:problem=mixed beam	!	!
8D/yy 8DD/L	16fffLL 16aa\	.
.	16ff\	.
16f\yy 16F\L	16fff 16aa\	.
16e\yy 16E\JJ	16ff\	.
8dyy 8D\L	16fff 16aa\	.
.	16ff\	.
8c#Xyy 8C#X\J	16fff 16aa\	.
.	16ff\JJ	.
*	*rep	*
8dyy 8D\L	16fffLL 16aa\	.
.	16ff\	.
8c#yy 8C#\	16fff 16aa\	.
.	16ff\	.
8dyy 8D\	16fff 16aa\	.
.	16ff\	.
8cnyy 8Cn\J	16fff 16aa\	.
.	16ff\JJ	.
*	*Xrep	*
=119	=119	=119
8B-yy 8BB-\L	16fffLL 16bb-\	.
.	16gg\	.
16dyy 16D\L	16fff 16bb-\	.
16cyy 16C\JJ	16gg\	.
8B-yy 8BB-/L	16fff 16bb-\	.
.	16gg\	.
8Ayy 8AA/J	16fff 16bb-\	.
.	16gg\	.
8B-yy 8BB-/L	16fff 16bb-\	.
.	16gg\	.
8Ayy 8AA/	16fff 16bb-\	.
.	16gg\JJ	.
*	*Xtremolo	*
8B-yy 8BB-/	16fffLL 16ddd 16aa-X\	.
.	16ff\	.
8Bnyy 8BBn/J	16fff 16ddd 16aa-\	.
!LO:TX:a:t=loco	!	!
.	16ff\JJ	.
*Xcoll8va	*	*
=120	=120	=120
*	*tremolo	*
8cL 8C\	16fffLL 16aa\	.
.	16ff\	.
16F\L	16fff 16aa\	.
16A\JJ	16ff\	.
8cL 8C\	16fff 16aa\	.
.	16ff\	.
8cJ 8C\	16fff 16aa\	.
.	16ff\JJ	.
*tremolo	*Xtremolo	*
8cL 8C\	16fffLL 16bb-\	.
.	16gg\	.
8c 8C\	16fff 16bb-\	.
.	16gg\JJ	.
8c 8C\	16eeeLL 16bb-\	.
.	16gg\	.
8cJ 8C\	16eee 16bb-\	.
.	16gg\JJ	.
=121!|:	=121!|:	=121!|:
*>B	*>B	*
4F 4C 4FF/	8fffL 8aa 8ff\	.
.	16aaL 16ff'\	.
.	16aaJJ 16ff'\	.
4F 4C 4FF/	8cccL 8aa'\	.
.	8aaJ 8ff'\	.
4F 4C 4FF/	8cccL 8aa'\	.
.	8aa 8ff'\	.
4F 4C 4FF/	8ccc 8aa'\	.
.	8aaJ 8ff'\	.
=122	=122	=122
*rep	*	*
4F 4C 4FF/	8eee 8bb- 8gg\	fff
!	!LO:TX:b:t=[coda]	!
.	4eee 4bb- 4gg\	.
4F 4C 4FF/	.	.
.	4eee 4bb- 4gg\	.
4F 4C 4FF/	.	.
.	4eee 4bb- 4gg\	.
4F 4C 4FF/	.	.
.	8eee 8bb- 8gg\	.
*Xrep	*	*
!!LO:LB:g=original
=123:|!	=123:|!	=123:|!
*>C	*>C	*
4F 4C 4FF/	4fff 4aa 4ff\	.
4r	16ff\LL	.
.	16fff\	.
.	16eee\	.
.	16ddd\JJ	.
2r	16ccc\LL	.
.	16ddd\	.
.	16ccc\	.
.	16bb-\JJ	.
.	16aa\LL	.
.	16bb-\	.
.	16aa\	.
.	16gg\JJ	.
=124	=124	=124
4r	4ff\	.
16F\LL	16ff\LL	.
16f\	16ff\	.
16e\	16ee\	.
16d\JJ	16dd\JJ	.
16c\LL	16cc\LL	.
16d\	16dd\	.
16c\	16cc\	.
16B-\JJ	16b-\JJ	.
16A\LL	16a/LL	.
16B-\	16b-/	.
16A\	16a/	.
16G\JJ	16g/JJ	.
=125	=125	=125
!LO:TX:b:i:t=Koniec	!	!
4F\	4f/	.
4f 4F\	4ff 4cc 4a\	.
4c 4C\	4aa 4ff 4cc\	.
4A 4AA\	4ccc 4aa 4ff\	.
=126	=126	=126
4F 4FF\	4fff 4aa 4ff\	.
4f 4F\	4ff 4cc 4a\	.
4c 4C\	4aa 4ff 4cc\	.
4A 4AA\	4ccc 4aa 4ff\	.
=127	=127	=127
4F 4FF/	4fff 4aa 4ff\	.
4r	4r	.
4F 4C 4FF/	4ff 4cc 4a\	.
4F 4C 4FF/	4ff 4cc 4a\	.
=128	=128	=128
2F 2C 2FF/	2ff 2cc 2a\	.
2r	2r	.
=129	=129	=129
2F 2C 2FF/	2gg 2ff 2cc\	.
4r	4r	.
8.r	8.r	.
16F 16C 16FF/	16f 16c 16A/	.
=130	=130	=130
1F 1C 1FF;<	1f 1c 1A;>	.
==	==	==
*-	*-	*-
!!!system-decoration: {s1,s2}
!!!RDF**dynam: > = "dim.", 'fontstyle="italics"
!!!RDF**kern: | = vertical stroke
!!!RDF**kern: > = above
!!!RDF**kern: < = below
!!!EED: Antoni Szymański
!!!EEV: 2021-06-26
!!!ENC: Mateusz Solarz
!!!END: 2021-06-18
